X: 1
T: SILVER STAR -- HORNPIPE
B: Ryan's Mammoth Collection of Fiddle Tunes
R: hornpipe
M: 2/4
L: 1/16
Z: Contributed 20010916033025 by John Chambers jmchambers:rcn.net
K: G
uD2 \
| GBAF GDB,D | GB"4"ec d2"0"vef | gfed cBAG | FGAB ADEF |
| GBAF GDB,D | GB"$"ec d2"0"vef | gfgd ecAF | G2G2G2 :|
|: (uBc) \
| d2dB g2gd | "4"e2ec a2ag | f2f"0"e dcBA | Bed^c ud2B=c |
| d2dB g2gd | "4"e2ec a2ag | fgfe dcBA | G2G2G2 :|
